X: 39509
T: Taureen Derby
R: polka
M: 2/4
K: Edorian
|:BE FE|BE G/F/E|D>E FA|DE FA|
BE G/F/E|BE FE|D>E FA|1 FE EF/A/:|2 FE E2||
|:ee/e/ dB|ee/e/ dB|AF dF|AB/c/ df|
ee/e/ dB|ee/e/ dB|AF dF|1 FE gf:|2 FE E2||

